X:1
T:La grant doulceur
T:La grant doulceur
T:Tielman Susato
C:Tielman Susato
%%score [ 1 2 [ 3 4 ] ]
L:1/8
Q:1/4=120
M:2/2
K:C
V:1 treble nm="Superius" snm="S"
V:2 treble nm="Altus" snm="A"
V:3 treble-8 nm="Tenor 1" snm="T 1"
V:4 treble-8 nm="Tenor 2" snm="T 2"
V:1
 A8- | A4 c4 | d4 e4- | e2 e2 d2 d2 | c2 f3 e e2- | e2 d2 e4 | z2 c2 d2 f2 | e3 d c2 c2 | d6 B2 | %9
w: La|_ grant|doul- ceur|_ de ta bon-|ne na- * tu-|* * re|at- ti- re'à|toy des gens l'af-|fec- *|
 A2 c3 d e2- | ed d4 c2 | d8 | z4 A4- | A4 c4 | d4 e4- | e2 e2 d2 d2 | c2 f3 e e2- | e2 d2 e4 | %18
w: |* * * ti-|on,|fors|_ seul-|le- ment|_ de cel- le|cre- a- * tu-|* * re,|
 z2 c2 d2 f2 | e3 d c2 c2 | d6 B2 | A2 c3 d e2- | ed d4 c2 | d4 z2 d2- | d2 d2 e4- | e4 c2 c2 | %26
w: qui en a-|mours te don- ne|pas- *||* * * si-|on, car|_ ta ver-|* tu et|
 f6 fe | d2 d2 c2 A2 | c3 d e4 | z8 | z8 | z2 A2 c2 d2 | e2 g2 g2 f2 | d4 e2 f2- | fe e3 d d2- | %35
w: doul- ce'at- *|trac- ti- on ne|font si non|||la ren- dre|plus cru- el- *|||
 dc c2 d4 | c8 | z2 A2 F2 D2 | A8 | A4 c4 | d4 e4- | e2 e2 d2 d2 | c2 f3 e e2- | e2 d2 e4 | %44
w: |le,|dont je con-|clus,|dont je|con- clus|_ en re- so-|lu- * * *|* ti- on,|
 z2 c2 d2 f2 | e3 d c2 c2 | d6 B2 | A2 c3 d e2- | ed d4 c2 | d8 |] %50
w: que pour bon-|heur, tu as dou-|leur en|el- * * *||le.|
V:2
 z8 | z4 A4 | F2 D2 A4- | A2 G2 B2 B2 | A2 c4 c2 | A2 F2 A2 A2 | c4 B2 A2 | z2 G2 A2 c2 | %8
w: |La|grant doul- ceur|_ de ta bon-|ne na tu-|re at- ti- re'à|toy des gens,|at- ti- re'à|
 _B3 B B2 G2 | c2 A2 A2 c2 | A2 B2 A3 G |"^b" F2 A2 B2 A2- | A2 GF E4 | z4 A4 | F2 D2 A4- | %15
w: toy des gens l'af-|fec- ti- on, des|gens l'af- fec- *||* ti- * on,|fors|seul- le- ment|
 A2 G2 B2 B2 | A2 c4 c2 | A2 F2 A2 A2 | c2 c2 B2 A2 | z2 G2 A2 c2 | _B6 G2 | c2 A2 z2 A2 | %22
w: _ de cel- le|cre- a- tu-|re, qui en a-|mours te don- ne,|qui en a-|mours te|don- ne, te|
 A2 B2 A3 G | F2 A4 B2 | A3 B c2 G2 | c3 B A3 G | F3 E D2 D2 | F2 G2 A4 | z2 A2 A2 G2 | %29
w: don- ne pas- si-|on, car ta|ver- * tu et|doul- * at- *|trac- ti- on ne|font si non|ne font si|
 A2 c2 c2 c2 | G4 z2 D2 | FG A4 A2 | G2 E2 A4 | G3 F E2 D2 | A2 c2 c2 _B2- | BA A4 G2 | A4 z2 E2 | %37
w: non la ren- dre|plus, ne|font si non la|ren- dre plus|cru- el- le, la|ren dre- plus cru-|* * el- *|le, dont|
 F3 G A2 GF | E6 E2 | F2 F2 E2 A2 | F2 D2 A4- | A2 G2 B4 | A2 c4 c2 | A2 F2 A2 A2 | c4 B2 A2 | %45
w: je _ _ con- *|clus, dont|je con clus, dont|je con- clus|_ en re-|so- lu- ti-|on, que pour bon-|heur tu as|
 z2 G2 A2 c2 | B6 G2 | c2 A2 A4- |"^b" A2 B2 A4 | F8 |] %50
w: que pour bon-|heur, tu|as dou- leur|_ en el-|le.|
V:3
 A4 c4- | c2 d2 e2 e2 |"^b""^b" d2 d2 c3 d | ef g4 g2 | e2 a2 g2 e2 | f4 e2 e2 | f2 a2 g2 f2 | %7
w: La grant|_ doul- ceur de|ta bon- ne na-|tu- * re, de|ta bon- ne na-|tu- re at-|ti- re'à toy des|
 g2 e2 f2 e2 | d2 f2 g3 f | edcB A2 a2 | f2 g2 e4 | d4 z4 | A4 c4- | c2 d2 e2 e2 | d2 d2 c3 d | %15
w: gens l'af- fec- ti-|on, l'af- fec- *||* * ti-|on,|fors seul-|* le- ment de|cel- le cre- *|
 ef g4 g2 | e2 a2 g2 e2 | f4 e2 e2 | f2 a2 g2 f2 | g2 e2 f2 e2 | d2 f2 g3 f | edcB A2 a2 | %22
w: * * * a-|tu- * * *|re, qui en|a- mours te don-|ne, qui en a-|mours te don- ne|pas- * * * * *|
 f2 g2 e4 | d2 f4 g2 | f4 e4- | e2 c2 f3 e | d2 c2 d2 G2 | d2 d2 e4 | A4 c2 B2 | A2 A2 c3 d | %30
w: * * si-|on, car ta|ver- tu|_ et doul- ce'at-|trac- ti- on ne|font si non,|ne font si|non,- ne font si|
 e2 g2 g2 f2 | d2 f2 ed d2- | d2 c2 d4 | z2 g2 g2 f2 | d2 e2 f4 | e2 e4 d2 | e2 e2 c2 A2 | d4 z4 | %38
w: non la ren- dre|plus cru- el- * *|* * le,|la ren- dre|plu cru- el-|le, la ren-|dre plus cru- el-|le,|
 z2 A2 c4- | c2 d2 e2 e2 | d2 d2 c3 d | ef g4 g2 | e2 a2 g2 e2 | f4 e2 e2 | f2 a2 g2 f2 | %45
w: dont je|_ con- clus en|re- so- lu- *|* * * ti-|on, dont je con-|clus en re-|so- lu- * ti-|
 g2 e2 f2 e2 | d2 f2 g3 f | ed cB A2 a2 | f2 g2 e4 | d8 |] %50
w: on que pour bon-|heur, tu as dou-|leur _ _ _ _ en|el- * *|le.|
V:4
 z4 A4 | F2 D2 A2 A2 | B2 B2 A2 A2 | c2 c2 G4 | A2 F2 c4 | d4 A4 |"^#" z2 A2 B2 d2 | c3 B A2 A2 | %8
w: La|grant doul- ceur de|ta bon- ne na-|tu re,- ta|bon- ne na-|tu- re|at- ti- re'à|toy _ _ l'af-|
 _B4 G4 | A6 A2 | d2 G2 A2 A2 | D8 | z4 A4 | F2 D2 A2 A2 |"^b""^b" B2 B2 A2 A2 | c2 c2 G4 | %16
w: fec- ti-|on, l'af|fec- * * ti-|on,|fors|seul- le- ment de|cel- le cre- a-|tu- re, cel-|
"^b" A2 F2 c4 | d4 A4 |"^#" z2 A2 B2 d2 | c3 B A2 A2 | B4 G4 | A6 A2 | d2 G2 A2 A2 | D2 d4 G2 | %24
w: le cre- a-|tu- re,|qui en a-|mours _ _ te|don- ne|pas- si-|on, car ta ver-|tu, car ta|
 d4 c4- | c4 z4 | F4 _B4- |"^b" B2 B2 A3 G | F4 z2 E2 | F3 G A2 c2 | c2 B2 G2 B2- | B2 A4 GF | %32
w: ver- tu|_|et doul-|* ce'at- trac- ti-|on, ne|font si non la|ren- dre plus cru-|* el- * *|
 E4 D4 | z4 z2 d2 | d2 c2 A2 _B2 |"^b""^b" c2 BA B4 | A8 | D4 F2 G2 | A4 z2 A2 | F2 D2 A2 A2 | %40
w: * le,|le|ren- dre plus cru-|el- * * *|le,|dont je con-|clus dont|je con- clus, dont|
"^b""^b" B2 B2 A2 A2 | c4 G4 |"^b" A2 F2 c4 | d4 A4 | z2 A2 B2 d2 | c3 B A2 A2 |"^b" B4 G4 | %47
w: je con- clus en|re- so-|lu- * *|ti- on,|que pour bon-|heur _ _ tu|as dou-|
 A6 A2 |"^b" d2 G2 A4 | D8 |] %50
w: leur en|el- * *|le.|

